X: 1
T: the Sow and the Boar
C: Freeland Barbour, 1985
B: The Hills of Atholl
B: SRSNH 2.23
Z: John Chambers <jc@trillian.mit.edu>
R: march
M: 2/4
L: 1/8
K: BDor
|: a/g/ \
| "Bm"fB b2 | a/g/f/e/ fB | "A"A>B cA | ce f/e/c/e/ \
|  "Bm"fB b2 | a/g/f/e/ fB | "A"A>B c/A/c/e/ | "Bm"fB B :|
|: c/e/ \
| "Bm"fB BA/B/ | "A"c>B c/A/c/e/ | "Bm"fB Bc/e/ | f/a/g/b/ "A"a/f/e/c/ \
|  "Bm"fB BA/B/ | "A"c>B c/A/c/e/ | "Bm"f/a/g/b/ "A"a/f/e/c/ | "Bm"fB A:|

